src/normal/bars.svg

<!-- Generated by IcoMoon.io -->
<svg version="1.1" xmlns="http://www.w3.org/2000/svg" width="24" height="24" viewBox="0 0 24 24">
<title>bars</title>
<path d="M23 22v-1h-1v1h-1v-10h-5v10h-1v-20h-5v20h-1v-12h-1v-1h-1v1h-2v-1h-1v13h-2v-22h-2v24h24v-2h-1zM7 22h-1v-10h1v10zM13 22h-1v-18h1v18zM19 22h-1v-8h1v8zM4 0h1v1h-1zM7 0h1v1h-1zM10 0h1v1h-1zM13 0h1v1h-1zM16 0h1v1h-1zM19 0h1v1h-1zM22 0h1v1h-1zM22 3h1v1h-1zM19 3h1v1h-1zM16 3h1v1h-1zM16 6h1v1h-1zM19 6h1v1h-1zM22 6h1v1h-1zM22 9.002h1v1h-1zM19 9h1v1h-1zM16 9h1v1h-1zM22 12h1v1h-1zM22 15h1v1h-1zM22 18h1v1h-1zM7 3h1v1h-1zM7 6h1v1h-1zM4 6h1v1h-1zM4 3h1v1h-1z"></path>
</svg>

<svg xmlns="http://www.w3.org/2000/svg" width="24" height="24"><path d="M23 22v-1h-1v1h-1V12h-5v10h-1V2h-5v20H9V10H8V9H7v1H5V9H4v13H2V0H0v24h24v-2h-1zM7 22H6V12h1v10zm6 0h-1V4h1v18zm6 0h-1v-8h1v8zM4 0h1v1H4zm3 0h1v1H7zm3 0h1v1h-1zm3 0h1v1h-1zm3 0h1v1h-1zm3 0h1v1h-1zm3 0h1v1h-1zm0 3h1v1h-1zm-3 0h1v1h-1zm-3 0h1v1h-1zm0 3h1v1h-1zm3 0h1v1h-1zm3 0h1v1h-1zm0 3.002h1v1h-1zM19 9h1v1h-1zm-3 0h1v1h-1zm6 3h1v1h-1zm0 3h1v1h-1zm0 3h1v1h-1zM7 3h1v1H7zm0 3h1v1H7zM4 6h1v1H4zm0-3h1v1H4z"/></svg>
